X:49
T:Jigs simple chords 116
M:3/4
L:1/8
K:Em
d[dG,B,D] BG GB | d[eC,E,G,] fg g2 | e[dG,B,D] BG GA | B[A5A,5C5E5] | d[dG,B,D] BG GB |
d[eC,E,G,] fg g2 | e[dG,B,D] BG AB | A[G5G,5B,5D5] | d[dG,B,D] BG GB |
d[eC,E,G,] fg g2 | e[dG,B,D] BG GA | B[A5A,5C5E5] | d[dG,B,D] BG GB |
d[eC,E,G,] fg g2 | e[dG,B,D] BG AB | A[G5G,5B,5D5] | B/c/[d2G,2B,2D2]g gf |
g[e2C,2E,2G,2]g gf | g[dG,B,D] BG GA | B[A5A,5C5E5] | d[dG,B,D] BG GB |
d[eC,E,G,] fg g2 | e[dG,B,D] BG AB | A[G5G,5B,5D5] | B/c/[d2G,2B,2D2]g gf |
g[e2C,2E,2G,2]g gf | g[dG,B,D] BG GA | B[A5A,5C5E5] | d[dG,B,D] BG GB |
d[eC,E,G,] fg g2 | e[dG,B,D] BG AB | A[G5G,5B,5D5] |


